X:1
T:Calling Thee
T:Calling Thee
T:Charles Hutchinson Gabriel
T:Frances Jane (Fanny) Crosby, 1918
T:Public Domain Courtesy of the Cyber Hymnal™
T:Public Domain Courtesy of the Cyber Hymnal™
C:Charles Hutchinson Gabriel
Z:Public Domain
Z:Courtesy of the Cyber Hymnal™
%%score ( 1 2 ) ( 3 4 )
L:1/8
Q:1/4=102
M:4/4
K:Eb
V:1 treble 
V:2 treble 
V:3 bass 
V:4 bass 
V:1
 E[EF] | [EG][EG][DG][DF] E2 [EG][FA] | [GB][GB][GB][FA] [EG]2 [DA][EB] | %3
w: 1.~Say, what|mean thy tears that start, Wear- y|child with brok- en heart? Lift thine|
w: 2.~He has|called and sought thee long; Leave the|gay and care- less throng; Why de-|
w: 3.~Dost thou|on His name be- lieve? Pardon- ing|grace wouldst thou re- ceive? Plead with|
w: 4.~At the|cross where once He died, At the|fount He o- pened wide, Seek and|
 [Ec][Ec][Ec][Ec] [Ae]2 [Ed][Ec] | [EB][Ec][EB][EG] [DF]2 |:"^Refrain" [DG][DF] | E4 B2 BG |1 %7
w: eye! O look and see— ’Tis the|Sav- ior call- ing thee.|||
w: lay His own to be, When he|still is call- ing thee?|He is|call- ing, He is|
w: Him on bend- ed knee— Love di-|vine is call- ing thee.|||
w: find sal- va- tion free, While He|now is call- ing thee!|||
 FGFA [Ac]2 [Ad][Ac] | [GB][Gc][GB][Gc] [GB]2 [EG][EA] | [EG][DF][DF][^C=E] [DF]2 :|2 [Ad][Ac] || %11
w: ||||
w: call- ing, call- ing thee, Lift thine|eyes! O look and see, ’Tis the|Sav- ior call- ing thee!|’Tis the|
w: ||||
w: ||||
 [GB][Gc][GB][Gc] [GB][EG][DG][DF] | E4- [B,E]2 |] %13
w: ||
w: Sav- ior call- ing, call- ing, call- ing|thee! *|
w: ||
w: ||
V:2
 E x | x4 E2 x2 | x8 | x8 | x6 |: x2 | (ECB,C) (EG) E2 |1 E4 x4 | x8 | x6 :|2 x2 || x8 | %12
 ECB,C x2 |] %13
V:3
 [E,G,][E,A,] | [E,B,][E,B,][B,,B,][B,,A,] [E,G,]2 [E,B,][E,B,] | %2
w: ~ ~|~ ~ ~ ~ ~ ~ ~|
 [E,E][E,E][B,,E][B,,B,] [E,B,]2 [F,B,][G,B,] | A,A,A,A, [A,C]2 [A,B,]A, | %4
w: ~ ~ ~ ~ ~ ~ ~|~ ~ ~ ~ ~ ~ ~|
 [E,G,][E,A,][E,G,][E,B,] [A,,B,]2 |: [B,,B,][B,,A,] | %6
w: ~ ~ ~ ~ ~|He is|
 [E,G,][E,A,][E,G,][E,A,] [E,G,][E,B,] [G,_D]2 |1 [A,C]4 [A,E]2 [A,E][A,E] | %8
w: call- ing, call- ing, call- ing thee,|call- ing, ~ ~|
 [E,E][E,E][E,E][E,E] [E,E]2 [E,B,][E,B,] | [B,,B,][B,,B,][B,,B,][B,,B,] [B,,B,]2 :|2 [A,E][A,E] || %11
w: ~ ~ ~ ~ ~ ~ ~|~ ~ ~ ~ ~|~ ~|
 [E,E][E,E][E,E][E,E] [B,,E][B,,B,][B,,B,][B,,A,] | G,A,G,A, [E,G,]2 |] %13
w: ~ ~ ~ ~ ~ ~ ~ ~|call- ing, call- ing~thee *|
V:4
 x2 | x8 | x8 | A,A,A,A, x2 A, x | x6 |: x2 | x8 |1 x8 | x8 | x6 :|2 x2 || x8 | E,4- x2 |] %13

